X: 1
T: MacArthur Road
C: Dave Richardson
M: C|
L: 1/8
Z: John Chambers <jc:trillian.mit.edu> from handwritten MS (by Barbara McOwen)
K: E
e \
| "E"BG~G2 Bcef | g3e "E7"fece | "A"f2ge fece | "F#m"aege "B7"fece \
| "E"BG~G2 Bcef | g3e "E7"fece | "A"f2ge "F#m"fcec | "B7"Bcef "E"e3 :|
|: z \
| "E"be~e2 bec'e | be~e2 "E7"fece | "A"f2ge fece | "F#m"aege "B7"fece \
| "E"be~e2 bec'e | be~e2 "E7"fece | "A"f2ge "F#m"fcec | "B7"Bcef "E"e3 :|
